X: 13708
T: For The Sake Of Old Decency
R: reel
M: 4/4
K: Dmajor
B|A2 FD EFDF|A2 FD EDB,B|A2 FD EFDF|AFED B,DDB|
A2 FD EFDF|A2 FD EDB,B|A2 FD EFDF|AFED B,DD2||
D3A A2 FA|dBed Bdd2|D3A A2 FA|BdAF FEEF|
D3A A2 FA|dBed Bcd2|D3A A2 FA|ABde fedB||

